X:1
T:Title
L:1/8
M:3/4
K:C
V:1 treble nm="Piano, Piano" snm="Pno."
V:1
 z2 z2[Q:1/4=90] G>E | C2 E2 G2 | c4 e>d | c2 E2 ^F2 | G4 GG | e3 d c2 | B4 AB | c2 c2 G2 | %8
 E2 C2 G>E | C2 E2 G2 | c4 e>d | c2 E2 ^F2 | G4 GG | e3 d c2 | B4 AB | c2 c2 G2 | E2 C2 ee | %17
 e2 f2 g2 | g4 fe | d2 e2 f2 | f4 f2 | e3 d c2 | B4 A>B | c2 E2 ^F2 | G4 G2 | c2 c2 .c>B | %26
 A2 A2 A2 | d2 f.e d.c | c2 B2 GG | c3 d e.f | g4 cd | e3 f d2 | [EGc]6 |] %33

